X: 680
T: Mickey By the Fireside   #2
R: reel
%S: s:2 b:11(5.5+5.5)
B: Francis O'Neill: "The Dance Music of Ireland" (1907) #680
Z: Frank Nordberg - http://www.musicaviva.com
F: http://www.musicaviva.com/abc/tunes/ireland/oneill-1001/0680/oneill-1001-0680-1.abc
M: C|
L: 1/8
K: D
"^A"\
[| d2 dB AFAB | d2dB gfec | d2dB ADFA | gfed \
[1 cABc :|[2 cdef "^B"[| d2ad fdad |
| d2ad \
[1 gfec | d2ad fdad | cBAB cdef :|\
[2 cdef | gbaf gefd | edcB ABcA |]
